X:1
T:Le triste
T:Le triste
T:Jacob Arcadelt (1505-1568)
T:2010 by Paul R Marchesano. May be freely copied for nonprofit use.
T:2010 by Paul R Marchesano. May be freely copied for nonprofit use.
C:Jacob Arcadelt
C:(1505-1568)
Z:2010 by Paul R Marchesano. May be freely copied for nonprofit use.
%%score [ 1 2 3 4 ]
L:1/8
Q:1/4=136
M:2/2
K:F
V:1 treble nm="Soprano" snm="S"
V:2 treble nm="Alto" snm="A"
V:3 treble-8 nm="Tenor" snm="T"
V:4 bass nm="Bass" snm="B"
V:1
 A4 A2 G2 | F2 A2 c4- | c2 c2 B2 A2- | AG G2 F3 E | DC F4 E2 | F4 z2 F2 | F2 G2 AGAB | %7
w: Le tris- te|cueur que a-|* vec vous de-|* * * meu- *||re Si|quel- que foys _ _ _|
 c2 c2 B2 B2 | A2 c4 B2 | B2 A4 G2 | A4 z4 | F4 F2 E2 | F4 z2 D2 | F3 G A2 B2- | BA A4 G2 | %15
w: _ de- vant voz|yeulx sous- *|* * pi-|re|Pre- nez pi-|tié d'al-|le- ger son mar-|* * * ti-|
 A4 z2 A2 | A2 G2 F2 A2 | c6 c2 | B2 A3 G G2 | F3 E DC F2- | F2 E2 F4- | F4 z2 A2 | A2 G2 F2 A2 | %23
w: re Et|ne souf- frez qu'en-|tre voz|bras il _ _|meu- * * * *|* * re.|_ Et|ne souf- frez qu'en-|
 c6 c2 | B2 A3 G G2 |[M:3/2] F3 E DC F4 E2 |[M:2/2] F8 |] %27
w: tre voz|bras il _ _|meu- * * * * *|re.|
V:2
 F4 F2 E2 | D2 C2 F2 F2 | E4 z2 F2- | F2 E2 D4- | D2 B,2 C4 | A,4 z2 A,2 | D2 D2 C2 F2 | %7
w: Le tris- te|cueur que a- vec|vous de-|* * meu-||re Si|quel- que foys de-|
 E2 F2 G2 G2 | C2 F2 E2 G2- | G2 F4 E2 | F4 z4 | C4 C2 C2 | A,2 B,2 A,2 A,2 | D2 F2 E2 F2- | %14
w: vant voz yeulx sous-||* * pi-|re|Pre- nez pi-|tié d'al- le- ger|son mar- ti- *|
 F2 F2 D4- | D4 z2 F2 | F2 E2 D2 C2 | F2 F2 E4 | z2 F4 E2 | D6 B,2 | C4 A,4- | A,4 z2 F2 | %22
w: * * re|re Et|ne souf- frez qu'en-|tre _ _|il _|meu- *|* re.|re Et|
 F2 E2 D2 C2 | F2 F2 E4 | z2 F4 E2 |[M:3/2] D6 B,2 C4 |[M:2/2] A,8 |] %27
w: ne souf- frez qu'en-|tre _ _|il _|meu- * *|re.|
V:3
 c4 c2 B2 | A4 z2 A2 | c2 c2 d2 d2 | c3 B AG B2- | BA F2 G4 | F4 z2 F2 | A2 B2 c4 | z2 c2 d2 e2 | %8
w: Le tris- te|cueur que|a- vec vous de-|meu- * * * *||re Si|quel- que foys|de- vant voz|
 f2 ed c2 d2- | dcBA B4 | A4 z4 | A4 A2 G2 | F4 z2 F2 | A2 B2 c2 d2- | dcBA B4 | A4 z2 c2 | %16
w: yeulx _ _ _ sous-|* * * * pi-|re|Pre- nez pi-|tié d'al-|le- ger son mar-|* * * * ti-|re Et|
 c2 B2 A4 | z2 A2 c2 c2 | d2 d2 c3 B | AG B3 A F2 | G4 F4- | F4 z2 c2 | c2 B2 A4 | z2 A2 c2 c2 | %24
w: ne souf- frez|qu'en- tre voz|bras il meu- *||* re.|re Et|ne souf- frez|qu'en- tre voz|
 d2 d2 c3 B |[M:3/2] AG B3 A F2 G4 |[M:2/2] F8 |] %27
w: bras il meu- *||re.|
V:4
 F,4 F,2 G,2 | D,2 F,2 F,2 F,2 | A,3 G,/F,/ G,2 F,2- | F,E, C,2 D,3 C, | B,,2 D,2 C,4 | %5
w: Le tris- te|cueur que a- vec|vous _ _ _ de-|* * * meu- *||
 F,4 z2 D,2 | D,2 B,,2 F,E,F,G, | A,2 F,2 B,2 G,2 | F,3 G, A,2 G,2 | B,2 F,2 G,4 | F,4 z4 | %11
w: re Si|quel- que foys _ _ _|_ de- vant voz|yeulx _ _ sous-|pi- * *|re|
 F,4 F,2 C,2 | D,2 B,,2 D,4- | D,2 D,2 C,2 B,,2 | F,4 G,4 | D,4 z2 F,2 | F,2 G,2 D,2 F,2 | %17
w: Pre- nez pi-|tié d'al- le-|* ger son mar-|ti- *|re Et|ne souf- frez qu'en-|
 F,2 F,2 A,3 G,/A,/ | G,2 F,3 E, C,2 | D,3 C, B,,2 D,2 | C,4 F,4- | F,4 z2 F,2 | F,2 G,2 D,2 F,2 | %23
w: tre voz bras _ _|_ il _ _|meu- * * *|* re.|re Et|ne souf- frez qu'en-|
 F,2 F,2 A,3 G,/A,/ | G,2 F,3 E, C,2 |[M:3/2] D,3 C, B,,2 D,2 C,4 |[M:2/2] F,8 |] %27
w: tre voz bras _ _|_ il _ _|meu- * * * *|re.|

